icons/global/user-settings/user-profile.svg

<svg width="24" height="24" viewBox="0 0 24 24" fill="none" xmlns="http://www.w3.org/2000/svg">
<path d="M19.2927 9.83128L19.9407 9.18419C20.6191 8.50398 21 7.58249 21 6.62179C21 5.6611 20.6191 4.73961 19.9407 4.0594C19.2606 3.38098 18.3392 3 17.3786 3C16.418 3 15.4966 3.38098 14.8164 4.0594L14.1694 4.7075L19.2927 9.83128ZM12.8953 5.97769L5.18392 13.6919L10.3082 18.8147L18.0196 11.0995L12.8953 5.97669V5.97769ZM4.11886 20.973L8.75911 19.8138L4.18687 15.2411L3.0268 19.8818C2.98915 20.0327 2.9912 20.1907 3.03275 20.3405C3.0743 20.4903 3.15394 20.6268 3.26391 20.7366C3.37388 20.8465 3.51042 20.926 3.66025 20.9675C3.81008 21.0089 3.96808 21.0108 4.11886 20.973Z" fill="black"/>
</svg>

<svg xmlns="http://www.w3.org/2000/svg" width="24" height="24" fill="none">
  <path fill="#000" d="m19.293 9.831.648-.647a3.629 3.629 0 0 0 0-5.125 3.628 3.628 0 0 0-5.125 0l-.647.648 5.124 5.124Zm-6.398-3.853-7.711 7.714 5.124 5.123 7.712-7.716-5.125-5.122ZM4.12 20.973l4.64-1.16-4.572-4.572-1.16 4.64a.9.9 0 0 0 1.092 1.092Z"/>
</svg>
